!!!OTL: Kua gu diao
!!!ARE: Asia, China,ÿAnhui, Fengtai
!! III, 588
!!!SCT: C1614
!!!YEM: Copyright 1995, estate of Helmut Schaffrath.
**kern
*ICvox
*Ivox
*M2/4
*k[f#]
*G:
{8b
8a
8g
8a
=1
8b
8a
4b
=2
8a
4g
8a
=3
4b
4dd
=4
8dd
8dd
8b
8a
=5
2g}
=6
{8b
8a
8g
[8e
=7
8e]
4a
8a
=8
8g
4.g
=9
8a
16b
16a
4g}
=10
{4r
4a
=11
8.e
16g
8g
8b
=12
8e
8b
[4a
=13
8a]
8a
8e
8e
=14
2g}
=15
{4.a
8ee
=16
8.e
16e
4g
=17
8a
16b
16a
4g}
==
!!!AGN: Wuge, Huagudeng
!!!AMT: simple duple
!!!AIN: vox
!!!EED: Helmut Schaffrath
!!!EEV: 1.0
*-
!!!ONB: Tied note syntax fixed by Craig Sapp, 2004/05/03/
